X:1
T:Title
%%score { ( 1 3 ) | ( 2 4 5 ) }
L:1/8
Q:1/4=100
M:4/4
K:C
V:1 treble nm="Grand Piano"
V:3 treble 
V:2 bass 
V:4 bass 
V:5 bass 
V:1
 [Ec]2 z2 [Ec]2 [EG]>[EG] | c2 z2 z4 | (3ECE (3GEG c2 [Ge]2 | %3
w: H.~L.~Gilmour * * *|||
 [Gd]2 [DBd]>[DAc] [DGB]2 [C^FA]>[CFA] | [B,G]6 (3GAB | [Ec]2 [Ec]>[Ec] [Ge]2 [Ec]>[GB] | A4 F3 A | %7
w: ||||
 G2 G>G [CEG]2 [CEG]>[CEG] | [B,DG]4 GFED | C2 E>[EG] [Ec]2 [Ec]>[EB] | [FA]4 d2 c2 | %11
w: ||||
 B2 B>B [GB]2 [^FA]>[FA] | [DG]6 [FG]2 | [Ge]2 [Ge]>[Fd] [Ec]2 [EG]>[EG] |[M:9/8] A3- A f2- f d2 | %15
w: ||||
[M:4/4] c2 c>c B2 A>B |[M:3/4] [Ec]6 |[M:1/4] [EG]2 |[M:4/4] [Ec]2 [Ec]>[Ec] [Ec] [Ec]2 G | %19
w: ||||
 Bdc^F G3 [G,D=F] | [G,CE][G,CE][CEA][Ec] B3 c | %21
w: ||
[M:39/32] z/4 z/4 z/4 z/4 z/4 z/4 z/4 z/4 z/4 z/4 z/4 z/4 z/4 z/4 z/4 z/4 z/4 z/4 z/4 z/4 z/4 z/4 z/4 z/4 z/4 z/4 z/ e/4-e/4-e/4-e/4-e/4-e/4-e/-<e/ z/4 | %22
w: |
[M:4/4] z4 (3A A3 B2 | (5:4:4c[DFB]3/2[CEA][B,E^G]3/2 z4 | z2 F2- [Fc-]/<c/- c2- c/4 z/4 z/ | %25
w: |||
 z2 d2- d/4 z/4 z/ z z2 | %26
w: |
[M:17/16] (9:8:18[Ge]-[Ge]/-[Ge]3/32[Ge]/-[Ge]/32[Ge]-[Ge]/16[Ge]-[Ge]/16[Af]-[Af]/-[Af]3/32[Af]/-[Af]-[Af]3/32[Ge]-[Ge]/-[Ge]3/32 z/32 (9:8:2d/-d/32 | %27
w: |
[M:3/4] (3c3 [DB]3 [Ec]3 |] %28
w: |
V:2
 [C,G,]2 z2 [C,G,]2 [C,C]>[C,C] | [C,G,]2 E,>G, C,2 C,2 | z4 z2 [C,C]2 | [G,B,]2 G,>G, G,2 D,>D, | %4
 G,6 (3G,A,B, | [C,G,]2 [C,G,]>[C,G,] [C,C]2 [C,G,]>[E,C] | [F,CF]4 [F,A,C]3 [F,CF] | %7
 [G,CE]2 E>E G,2 G,>G, | G,,4 G,F,E,D, | [C,E,]2 [C,G,C]>[C,C] [C,G,]2 [C,C]>[C,C] | %10
 [E,C]4[K:treble] [F,A,F]2 [F,A,F]2 | [G,DG]2 [G,DG]>[G,DG][K:bass] [D,D]2 [D,C]>[D,C] | %12
 [G,B,]6 [G,B,]2 | [C,C]2 [C,C]>[C,C] [C,G,]2 [C,C]>[C,C] | %14
[M:9/8][K:treble] [F,CF]3- [F,CF] [F,A,F]2- [F,A,F] [F,A,F]2 | %15
[M:4/4] [G,E]2 [G,E]>[G,E] [G,DF]2 [G,DF]>[G,DF] |[M:3/4][K:bass] [C,C]6 |[M:1/4] [C,C]2 | %18
[M:4/4] [C,G,]2 [C,G,]>[C,G,] [C,G,] [C,G,]2 G, | B,DC^F, G,3 G,, | %20
 C,C,A,,[A,,A,] [E,^G,E]3[K:treble] [A,E] | %21
[M:39/32] [G,B,G]/4-[G,B,G]/4-[G,B,G]/4-[G,B,G]/4-[G,B,G]/-<[G,B,G]/[G,B,G]/4-[G,B,G]/4-[G,B,G]/-<[G,B,G]/[G,B,G]/[G,B,G]/4-[G,B,G]/4-[G,B,G]/4-[G,B,G]/4-[G,B,G]/4-[G,B,G]/4-[G,B,G]/4-[G,B,G]/4-[G,B,G]/-<[G,B,G]/G/4-G/4-G/4-G/4-G/-<G/-[G,-B,-F-G]/[G,B,F]/4 | %22
[M:4/4][K:bass] z4 (3[F,CF][K:treble] [F,CF]3 [G,F]2 | (5:4:4[A,CE]D,3/2E,E,3/2 z4 | %24
 z4 G,3- G,/4 z/4 z/ | z2 [B,G]2 [B,G]3- [B,G]/4 z/4 z/ | %26
[M:17/16][K:bass] (9:8:18[C,C]-[C,C]/-[C,C]3/32[C,C]/-[C,C]/32[C,C]-[C,C]/16[C,C]-[C,C]/16[F,C]-[F,C]/-[F,C]3/32[F,C]/-[F,C]-[F,C]3/32[F,C]-[F,C]/-[F,C]3/32 z/32 (9:8:2[F,A,F]/-[F,A,F]/32 | %27
[M:3/4] (3[G,E]3 [G,,G,]3 [C,G,]3 |] %28
V:3
 x8 | E->[EG] E>G C2 C2 | x8 | x8 | x8 | x8 | x8 | x8 | x8 | x8 | x8 | x8 | x8 | x8 |[M:9/8] x9 | %15
[M:4/4] x8 |[M:3/4] x6 |[M:1/4] x2 |[M:4/4] x8 | x8 | x8 | %21
[M:39/32] d/4-d/4-d/4-d/4-d/-<d/d/4-d/4-d/-<d/d/d/4-d/4-d/4-d/4-d/4-d/4-d/4-d/4-d/-<d/ z/4 z/4 z/4 z/4 z/4 z/4 z/ d3/4 | %22
[M:4/4] (5:4:4[Ec][GB]3/2A^G3/2 z4 | z4 (3[CEA] [CEA]3 [DF=G]2 | %24
 (3:2:2[CEc]2 [Ec] c2 (3:2:2E4 [EG]2 | (3:2:2d2 d z2 (3:2:2d4 G2 |[M:17/16] x8 |[M:3/4] x6 |] %28
V:4
 x8 | x8 | x8 | x8 | x8 | x8 | x8 | z2 [G,C]2 z4 | x8 | x8 | x4[K:treble] x4 | x4[K:bass] x4 | x8 | %13
 x8 |[M:9/8][K:treble] x9 |[M:4/4] x8 |[M:3/4][K:bass] x6 |[M:1/4] x2 |[M:4/4] x8 | x8 | %20
 x7[K:treble] x | %21
[M:39/32] z/4 z/4 z/4 z/4 z/4 z/4 z/4 z/4 z/4 z/4 z/4 z/4 z/4 z/4 z/4 z/4 z/4 z/4 z/4 z/4 z/4 z/4 z/4 z/4 z/4 z/4 z/ [G,B,]/4-[G,B,]/4-[G,B,]/4-[G,B,]/4-[G,B,]/-<[G,B,]/ z/4 z/ | %22
[M:4/4][K:bass] (5:4:4[C,C][E,C]3/2[F,CF][F,B,F]3/2 z4[K:treble] | z4 (3A,, A,,3 B,,2 | %24
 z2 [F,A,]2- [F,A,]/4 z/4 z/ z z2 | (3:2:2[G,B,G]2 [G,B,G] z2 (3:2:2G,4 [G,B,]2 | %26
[M:17/16][K:bass] x8 |[M:3/4] x6 |] %28
V:5
 x8 | x8 | x8 | x8 | x8 | x8 | x8 | x8 | x8 | x8 | x4[K:treble] x4 | x4[K:bass] x4 | x8 | x8 | %14
[M:9/8][K:treble] x9 |[M:4/4] x8 |[M:3/4][K:bass] x6 |[M:1/4] x2 |[M:4/4] x8 | x8 | %20
 x7[K:treble] x |[M:39/32] x39/4 |[M:4/4][K:bass] x14/3[K:treble] x10/3 | x8 | %24
 (3:2:2C,2 [C,G,] z2 (3:2:2C,4 [C,C]2 | z2 G,2- G,/4 z/4 z/ z z2 |[M:17/16][K:bass] x8 | %27
[M:3/4] x6 |] %28

